src/assets/images/logo.svg

<svg xmlns="http://www.w3.org/2000/svg" xmlns:xlink="http://www.w3.org/1999/xlink" id="_Слой_2" data-name="Слой 2" viewBox="0 0 435.63 155">
  <defs>
    <style>
      .cls-1 {
        fill: url(#_Безымянный_градиент_2);
      }

      .cls-2 {
        fill: url(#_Безымянный_градиент_2-2);
      }

      .cls-3 {
        fill: #e9ecef;
      }
    </style>
    <linearGradient id="_Безымянный_градиент_2" data-name="Безымянный градиент 2" x1="40.69" y1="145.32" x2="106.01" y2="7.12" gradientTransform="translate(0 154) scale(1 -1)" gradientUnits="userSpaceOnUse">
      <stop offset=".19" stop-color="#f8f9fa"/>
      <stop offset=".74" stop-color="#adb5bd"/>
    </linearGradient>
    <linearGradient id="_Безымянный_градиент_2-2" data-name="Безымянный градиент 2" x1="49.34" y1="125.88" x2="94.51" y2="32.44" xlink:href="#_Безымянный_градиент_2"/>
  </defs>
  <g id="LOGO">
    <g>
      <path class="cls-1" d="m85.42,0v14.09l48.81,28.18v23.02h12.2v-30.07L85.42,0Zm48.81,89.7v23.02l-48.81,28.18v14.09l61.01-35.23v-30.07h-12.2Zm-122.02,0H0v30.07l61.01,35.23v-14.09l-48.81-28.18v-23.02ZM0,35.23v30.07h12.2v-23.02L61.01,14.09V0L0,35.23Z"/>
      <path class="cls-2" d="m85.42,126.82l12.2-7.05v-36.74h12.2v29.69l12.2-7.04v-56.36l-12.2-7.05v28.56h-12.2v-35.6l-12.2-7.04-12.2-7.04-12.2,7.04-12.2,7.04v35.6h-12.2v-28.56l-12.2,7.05v56.36l12.2,7.04v-29.69h12.2v36.74l12.2,7.05V42.27l12.2-7.04,12.2,7.04v84.55Z"/>
      <path class="cls-3" d="m223.18,69.59h-9.33v-15.02h-19.71v15.02h-9.33v-36.9h9.33v14.13h19.71v-14.13h9.33v36.9Z"/>
      <path class="cls-3" d="m230.87,51.15c0-12.44,8.43-19.14,21.93-19.14,15.02,0,22.3,7.22,22.3,19.14,0,13.23-8.54,19.14-22.03,19.14-14.34,0-22.19-6.64-22.19-19.14h0Zm34.32,0c0-7.86-4.16-11.54-12.44-11.54-7.59,0-11.97,3.8-11.97,11.54s4.58,11.49,12.65,11.49,11.76-3.64,11.76-11.49Z"/>
      <path class="cls-3" d="m310.04,32.7h9.28v21.61c0,11.55-6.17,15.97-18.5,15.97-11.65,0-18.45-4.06-18.45-16.03v-21.56h9.28v20.35c0,6.17,2.01,9.17,9.17,9.17,7.64,0,9.23-3.06,9.23-9.17v-20.35h0Z"/>
      <path class="cls-3" d="m327.11,60.42c2.05,1.11,6.7,2.43,12.02,2.43s7.64-1.27,7.64-3.8c0-2.69-2.05-3.21-7.75-4.8l-1.63-.42c-7.75-1.95-10.7-5.64-10.7-10.91,0-7.01,5.9-10.91,15.97-10.91,5.75,0,9.38.74,11.65,1.63v7.43c-3.38-1.05-7.69-1.53-11.07-1.53-4.69,0-7.01,1.06-7.01,3.21,0,2.26,2.64,3,8.96,4.85l1.74.47c8.17,2.37,10.01,6.06,10.01,10.54,0,7.54-6.53,11.65-16.92,11.65-5.43,0-9.54-.9-12.91-2.22v-7.64h0Z"/>
      <path class="cls-3" d="m393.26,69.59h-29.21v-36.9h29.21v7.54h-19.87v7.06h17.55v7.01h-17.55v7.7h19.87v7.59Z"/>
      <path class="cls-3" d="m223.18,122.3h-9.33v-15.02h-19.71v15.02h-9.33v-36.9h9.33v14.13h19.71v-14.13h9.33v36.9Z"/>
      <path class="cls-3" d="m259.76,85.41h9.28v21.61c0,11.54-6.17,15.97-18.5,15.97-11.65,0-18.45-4.06-18.45-16.03v-21.56h9.28v20.34c0,6.17,2.01,9.17,9.17,9.17,7.64,0,9.23-3.06,9.23-9.17v-20.34h-.01Z"/>
      <path class="cls-3" d="m316.16,122.3h-10.28l-18.87-25.78v25.78h-9.06v-36.9h10.96l18.24,25.03v-25.03h9.02v36.9Z"/>
      <path class="cls-3" d="m344.56,122.3h-9.33v-28.89h-13.18v-8.01h35.63v8.01h-13.12v28.89Z"/>
      <path class="cls-3" d="m392.79,122.3h-29.21v-36.9h29.21v7.54h-19.87v7.06h17.55v7.01h-17.55v7.69h19.87v7.59Z"/>
      <path class="cls-3" d="m400,85.41h16.87c11.44,0,15.86,4.01,15.86,11.65,0,5.69-2.43,9.33-7.91,11.17l10.81,14.07h-10.39l-9.65-12.86h-6.27v12.86h-9.33v-36.9h0Zm9.12,16.97h7.22c4.43,0,6.69-1.42,6.69-4.8,0-3.16-1.84-4.58-7.27-4.58h-6.64v9.38h0Z"/>
    </g>
  </g>
</svg>

<svg xmlns="http://www.w3.org/2000/svg" width="146" height="155" viewBox="0 0 146 155" fill="none">
<g clip-path="url(#clip0_56_2)">
<path d="M85.42 0V14.09L134.23 42.27V65.29H146.43V35.22L85.42 0ZM134.23 89.7V112.72L85.42 140.9V154.99L146.43 119.76V89.69H134.23V89.7ZM12.21 89.7H0V119.77L61.01 155V140.91L12.2 112.73V89.71L12.21 89.7ZM0 35.23V65.3H12.2V42.28L61.01 14.09V0L0 35.23Z" fill="url(#paint0_linear_56_2)"/>
<path d="M85.42 126.82L97.62 119.77V83.03H109.82V112.72L122.02 105.68V49.32L109.82 42.27V70.83H97.62V35.23L85.42 28.19L73.22 21.15L61.02 28.19L48.82 35.23V70.83H36.62V42.27L24.42 49.32V105.68L36.62 112.72V83.03H48.82V119.77L61.02 126.82V42.27L73.22 35.23L85.42 42.27V126.82Z" fill="url(#paint1_linear_56_2)"/>
</g>
<defs>
<linearGradient id="paint0_linear_56_2" x1="40.69" y1="8.68" x2="106.01" y2="146.88" gradientUnits="userSpaceOnUse">
<stop offset="0.19" stop-color="#F8F9FA"/>
<stop offset="0.74" stop-color="#ADB5BD"/>
</linearGradient>
<linearGradient id="paint1_linear_56_2" x1="49.34" y1="28.12" x2="94.51" y2="121.56" gradientUnits="userSpaceOnUse">
<stop offset="0.19" stop-color="#F8F9FA"/>
<stop offset="0.74" stop-color="#ADB5BD"/>
</linearGradient>
<clipPath id="clip0_56_2">
<rect width="146" height="155" fill="white"/>
</clipPath>
</defs>
</svg>
